tools/download-figma-icons/icons/solid/heater.svg

<svg width="24" height="24" viewBox="0 0 24 24" fill="none" xmlns="http://www.w3.org/2000/svg">
<path fill-rule="evenodd" clip-rule="evenodd" d="M3.75014 3.74991V6.74936V6.7499C3.7501 6.81099 3.74254 6.87307 3.72677 6.93498C3.62455 7.33638 3.21629 7.57892 2.81489 7.4767L0.564898 6.90373C0.232578 6.8191 -1.5974e-05 6.51986 -1.5974e-05 6.17693V4.3167C-1.5974e-05 3.97305 0.233537 3.67337 0.566774 3.58943L2.81676 3.02264C3.21843 2.92146 3.62606 3.16504 3.72724 3.56671C3.74269 3.62801 3.7501 3.68944 3.75014 3.74991ZM7.50013 2.99992C8.74276 2.99992 9.75011 4.00728 9.75011 5.24991V18.7498C9.75011 19.9925 8.74276 20.9998 7.50013 20.9998C6.25749 20.9998 5.25014 19.9925 5.25014 18.7498V5.24991C5.25014 4.00728 6.25749 2.99992 7.50013 2.99992ZM15.7501 5.24991C15.7501 4.00728 14.7427 2.99992 13.5001 2.99992C12.2575 2.99992 11.2501 4.00728 11.2501 5.24991V18.7498C11.2501 19.9925 12.2575 20.9998 13.5001 20.9998C14.7427 20.9998 15.7501 19.9925 15.7501 18.7498V5.24991ZM21.7501 5.24991C21.7501 4.00728 20.7427 2.99992 19.5001 2.99992C18.2574 2.99992 17.2501 4.00728 17.2501 5.24991V18.7498C17.2501 19.9925 18.2574 20.9998 19.5001 20.9998C20.7427 20.9998 21.7501 19.9925 21.7501 18.7498V5.24991Z" fill="black"/>
</svg>

<svg xmlns="http://www.w3.org/2000/svg" width="24" height="24" fill="none" viewBox="0 0 24 24"><path fill="currentColor" fill-rule="evenodd" d="M3.75 3.75v3a.75.75 0 0 1-.935.727l-2.25-.573A.75.75 0 0 1 0 6.177v-1.86a.75.75 0 0 1 .567-.728l2.25-.566a.75.75 0 0 1 .933.727M7.5 3a2.25 2.25 0 0 1 2.25 2.25v13.5a2.25 2.25 0 1 1-4.5 0V5.25A2.25 2.25 0 0 1 7.5 3m8.25 2.25a2.25 2.25 0 0 0-4.5 0v13.5a2.25 2.25 0 1 0 4.5 0zm6 0a2.25 2.25 0 0 0-4.5 0v13.5a2.25 2.25 0 1 0 4.5 0z" clip-rule="evenodd"/></svg>
